icons/document-arrow-left.svg

<svg xmlns="http://www.w3.org/2000/svg" width="24" height="24" viewBox="0 0 24 24">
  <path d="M12,1 L12,8 C12,8.55228475 12.4477153,9 13,9 L20,9 L20,21 C20,22.1045695 19.1045695,23 18,23 L6,23 C4.8954305,23 4,22.1045695 4,21 L4,3 C4,1.8954305 4.8954305,1 6,1 L12,1 Z M11.3871006,12.2097046 L11.2928932,12.2928932 L8.29289322,15.2928932 L8.24220802,15.347434 L8.24220802,15.347434 L8.232,15.359 L8.21968877,15.374551 L8.216,15.378 L8.22,15.374 L8.19633458,15.4046934 L8.19633458,15.4046934 C8.17849009,15.4288693 8.1617187,15.453725 8.14606743,15.4793398 L8.12467117,15.5159379 L8.12467117,15.5159379 C8.11379392,15.5357061 8.10337664,15.5561086 8.09365378,15.5769009 L8.07122549,15.628664 L8.07122549,15.628664 C8.06331574,15.6484208 8.05612249,15.6682023 8.04954668,15.6882636 C8.04472872,15.7031487 8.04009773,15.7185367 8.03584514,15.734007 C8.02983363,15.7555635 8.0246398,15.7772539 8.02016515,15.7992059 C8.01670217,15.8166247 8.01362808,15.834051 8.0110178,15.8515331 L8.00399798,15.909968 L8.00399798,15.909968 C8.00307004,15.9208131 8.00232561,15.9308872 8.0017331,15.9409686 L8.00018018,15.980824 L8.001,16.019 L8.0017331,16.0590314 L8.00278786,16.0752385 L8.00278786,16.0752385 L8.002,16.059 L8.003,16.081 L8.01101934,16.1489612 L8.01101934,16.1489612 C8.01362808,16.165949 8.01670217,16.1833753 8.02024007,16.2007258 C8.0246398,16.2227461 8.02983363,16.2444365 8.03572097,16.2658396 C8.04009773,16.2814633 8.04472872,16.2968513 8.04973809,16.3121425 C8.05612249,16.3317977 8.06331574,16.3515792 8.07110396,16.3710585 L8.09367336,16.4232215 L8.09367336,16.4232215 C8.10337664,16.4438914 8.11379392,16.4642939 8.12487577,16.484277 C8.13149883,16.4963944 8.13860692,16.5086131 8.14599545,16.5207088 C8.1617187,16.546275 8.17849009,16.5711307 8.19631351,16.5951593 C8.20071786,16.6012086 8.20517454,16.6070733 8.20970461,16.6128994 C8.21507113,16.6196628 8.2173721,16.6225624 8.21968877,16.625449 L8.29289322,16.7071068 L11.2928932,19.7071068 C11.6834175,20.0976311 12.3165825,20.0976311 12.7071068,19.7071068 C13.0675907,19.3466228 13.0953203,18.7793918 12.7902954,18.3871006 L12.7071068,18.2928932 L11.415,17 L15,17 C15.5522847,17 16,16.5522847 16,16 C16,15.4871642 15.6139598,15.0644928 15.1166211,15.0067277 L15,15 L11.415,15 L12.7071068,13.7071068 C13.0976311,13.3165825 13.0976311,12.6834175 12.7071068,12.2928932 C12.3466228,11.9324093 11.7793918,11.9046797 11.3871006,12.2097046 Z M14,1 L20,7 L15,7 C14.4871642,7 14.0644928,6.61395981 14.0067277,6.11662113 L14,6 L14,1 Z"/>
</svg>

<svg xmlns="http://www.w3.org/2000/svg" viewBox="0 0 24 24">
  <path d="M12 1v7a1 1 0 0 0 1 1h7v12a2 2 0 0 1-2 2H6a2 2 0 0 1-2-2V3c0-1.1.9-2 2-2h6zm-.61 11.21-.1.08-3 3-.05.06-.02.02-.02.03-.05.08-.03.04-.03.06-.02.05a.99.99 0 0 0-.06.22v.09l-.01.04v.1-.02.02l.01.07a1.08 1.08 0 0 0 .06.22l.02.05a1.02 1.02 0 0 0 .13.2l.07.09 3 3a1 1 0 0 0 1.5-1.32l-.08-.1L11.4 17H15a1 1 0 0 0 .12-2H11.4l1.3-1.3a1 1 0 0 0-1.32-1.49zM14 1l6 6h-5a1 1 0 0 1-1-.88V1z"/>
</svg>
